breeze-extra-gnome/status/22/zim-panel.svg

<?xml version="1.0" encoding="UTF-8" standalone="no"?>
<svg
   xmlns:dc="http://purl.org/dc/elements/1.1/"
   xmlns:cc="http://creativecommons.org/ns#"
   xmlns:rdf="http://www.w3.org/1999/02/22-rdf-syntax-ns#"
   xmlns:svg="http://www.w3.org/2000/svg"
   xmlns="http://www.w3.org/2000/svg"
   xmlns:sodipodi="http://sodipodi.sourceforge.net/DTD/sodipodi-0.dtd"
   xmlns:inkscape="http://www.inkscape.org/namespaces/inkscape"
   id="svg2"
   width="22"
   height="22"
   version="1.1"
   sodipodi:docname="zim-panel.svg"
   inkscape:version="0.92.3 (2405546, 2018-03-11)">
  <metadata
     id="metadata8">
    <rdf:RDF>
      <cc:Work
         rdf:about="">
        <dc:format>image/svg+xml</dc:format>
        <dc:type
           rdf:resource="http://purl.org/dc/dcmitype/StillImage" />
      </cc:Work>
    </rdf:RDF>
  </metadata>
  <sodipodi:namedview
     pagecolor="#ffffff"
     bordercolor="#666666"
     borderopacity="1"
     objecttolerance="10"
     gridtolerance="10"
     guidetolerance="10"
     inkscape:pageopacity="0"
     inkscape:pageshadow="2"
     inkscape:window-width="1920"
     inkscape:window-height="1020"
     id="namedview6"
     showgrid="true"
     inkscape:zoom="24.65"
     inkscape:cx="11"
     inkscape:cy="11"
     inkscape:window-x="0"
     inkscape:window-y="30"
     inkscape:window-maximized="1"
     inkscape:current-layer="svg2">
    <inkscape:grid
       type="xygrid"
       id="grid815" />
  </sodipodi:namedview>
  <defs
     id="defs8">
    <style
       id="current-color-scheme"
       type="text/css">
   .ColorScheme-Text { color:#cecfce; } .ColorScheme-Highlight { color:#3daee9; }
  </style>
  </defs>
  <path
     style="fill:#cecfce;fill-opacity:1"
     d="M 3 3 L 3 6 L 14.453125 6 L 3.0136719 15.96875 L 3.0410156 16 L 3 16 L 3 19 L 19 19 L 19 16 L 7.546875 16 L 18.986328 6.03125 L 18.958984 6 L 19 6 L 19 3 L 3 3 z M 4 4 L 18 4 L 18.339844 4.8671875 L 5.2734375 17 L 18 17 L 18 18 L 4 18 L 3.6601562 17.132812 L 16.726562 5 L 4 5 L 4 4 z "
     id="path4" />
</svg>

<?xml version="1.0"?>
<svg xmlns="http://www.w3.org/2000/svg" height="22" width="22" version="1.1" id="svg2">
 <defs id="defs8">
  <style type="text/css" id="current-color-scheme">
   .ColorScheme-Text { color:#cbcbcb; } .ColorScheme-Highlight { color:#3daee9; }
  </style>
 </defs>
 <path style="fill:currentColor" d="m3 3v3h11.453l-11.439 9.969 0.027 0.031h-0.041v3h16v-3h-11.453l11.439-9.9688-0.027-0.0312h0.041v-3h-16z" id="path4" class="ColorScheme-Text"/>
</svg>
